X: 1
T: I'm The Boy For Bewitching Them
M: 9/8
L: 1/8
R: slip jig
K: Gmaj
|:B|G>AG G<ge dBG|A>BA ABd e2g|
G>AG gfe dBG|A>Bc BAB E2:|
d|g>dg gag fed|efe efg a2b|gdg gag fed|
gfe dcB A2d|g>dg gag fed|efe efg a2g/a/|
bgb afa gfe|def gdB A2&quot;_D. C.&quot;|]
